X:62
T:Prince William
M:C|
Z:Mary-Lou Knack
R:reel
K:Dmaj clef=treble
[||: "D"d4 f2ed| "A"e4 A2g2| "D"f4 "A"e4| "D"dcde "Bm"d2e2|
"D"f2d2 A2f2| "A"e6 "A-A"d2| "A"c2a2 "E7"B2^g2 \
|1 "A"a6 A2 :|2 \
"A"a6 fg 
%Warning : No repeat expected, found :|
:|
|: "D"a4 b3a| "A"g2f2 e2a2| "D"g2f2 e2d2| "A"cdec A2Bc|
"D"d2cd "A"e2de| "D"f2ef "A"g2ag| "D"f2ed "A"A2c2 \
|1 "D"d4 d2 fg :|2
"D"d4 d2 A2 
%Warning : No repeat expected, found :|
:|

